Newaita-dark/devices/32/media-memory-sd.svg

<svg height="32pt" viewBox="0 0 32 32" width="32pt" xmlns="http://www.w3.org/2000/svg" xmlns:xlink="http://www.w3.org/1999/xlink"><linearGradient id="a" gradientUnits="userSpaceOnUse" x1="15.876521" x2="15.876521" y1="27.982205" y2="29.30524887502"><stop offset="0" stop-opacity=".27451"/><stop offset="1" stop-opacity="0"/></linearGradient><linearGradient id="b"><stop offset="0" stop-opacity=".313725"/><stop offset=".222222" stop-opacity=".27451"/><stop offset="1" stop-opacity="0"/></linearGradient><radialGradient id="c" cx="450.90894" cy="189.57936" gradientTransform="matrix(.00000017 -.0781325 -.140638 -.0000001 50.476844 63.543604)" gradientUnits="userSpaceOnUse" r="21.166656" xlink:href="#b"/><radialGradient id="d" cx="450.90894" cy="189.57936" gradientTransform="matrix(-.00000017 .0781325 .140638 .0000001 -18.723812 -7.579209)" gradientUnits="userSpaceOnUse" r="21.166656" xlink:href="#b"/><radialGradient id="e" cx="450.90894" cy="189.57936" gradientTransform="matrix(-.00000017 -.0781325 .140638 -.0000001 -18.723812 63.543604)" gradientUnits="userSpaceOnUse" r="21.166656" xlink:href="#b"/><radialGradient id="f" cx="450.90894" cy="189.57936" gradientTransform="matrix(.00000017 .0781325 -.140638 .0000001 50.476842 -7.57921)" gradientUnits="userSpaceOnUse" r="21.166656" xlink:href="#b"/><linearGradient id="g" gradientUnits="userSpaceOnUse" x1="15.876524" x2="15.876524" y1="30.68002175004" y2=".250017"><stop offset="0" stop-color="#424242"/><stop offset="1" stop-color="#616161"/></linearGradient><linearGradient id="h" gradientUnits="userSpaceOnUse" x1="15.876524" x2="15.876524" y1="28.033934" y2="2.89610412498"><stop offset="0" stop-color="#26a69a"/><stop offset="1" stop-color="#4db6ac"/></linearGradient><linearGradient id="i" gradientUnits="userSpaceOnUse" x1="15.87648" x2="15.87648" y1="28.0338647916" y2="4.8806631378"><stop offset="0" stop-color="#f44336"/><stop offset="1" stop-color="#ef5350"/></linearGradient><path d="m7.609375 28.007812h16.535156v1.347657h-16.535156zm0 0" fill="url(#a)"/><path d="m24.144531 27.980469h2.648438v-1.320313h-2.648438zm0 0" fill="url(#c)"/><path d="m7.609375 27.980469h-2.648437v1.324219h2.648437zm0 0" fill="url(#d)"/><path d="m7.609375 27.980469h-2.648437v-1.320313h2.648437zm0 0" fill="url(#e)"/><path d="m24.144531 27.980469h2.648438v1.324219h-2.648438zm0 0" fill="url(#f)"/><path d="m11.90625 2.902344c-.347656 0-.683594.140625-.929688.386718l-5.292968 5.292969c-.246094.246094-.386719.578125-.386719.929688v.660156h.65625c.367187 0 .660156.296875.660156.664063v1.984374c0 .363282-.292969.660157-.660156.660157h-.65625v13.230469c0 .726562.589844 1.316406 1.320313 1.316406h18.519531c.726562 0 1.316406-.589844 1.316406-1.316406v-9.261719h-.652344c-.367187 0-.664062-.292969-.664062-.660157v-7.277343c0-.367188.296875-.660157.664062-.660157h.652344v-4.632812c0-.726562-.589844-1.316406-1.316406-1.316406zm0 0" fill="url(#g)"/><path d="m5.296875 26.265625v.445313c0 .726562.589844 1.316406 1.320313 1.316406h18.519531c.726562 0 1.316406-.589844 1.316406-1.316406v-.445313c0 .726563-.589844 1.316406-1.316406 1.316406h-18.519531c-.730469 0-1.320313-.589843-1.320313-1.316406zm0 0" fill-opacity=".235294"/><path d="m13.230469 4.886719c-.347657 0-.683594.140625-.929688.386719l-3.96875 3.96875c-.25.246093-.386719.582031-.386719.929687v14.554687c0 .726563.589844 1.316407 1.316407 1.316407h13.230469c.726562 0 1.316406-.589844 1.316406-1.316407v-18.523437c0-.726563-.589844-1.316406-1.316406-1.316406zm0 0" fill="url(#h)"/><path d="m13.230469 4.886719c-.347657 0-.683594.140625-.929688.386719l-3.96875 3.96875c-.25.246093-.386719.582031-.386719.929687v1.984375h15.863282v-5.953125c0-.726563-.589844-1.316406-1.316406-1.316406zm0 0" fill="url(#i)"/><path d="m211.667287-136.819966c-5.561969 0-10.936456 2.249785-14.87358 6.186909l-63.493936 63.493937c-3.999619 3.937124-6.18691 9.311611-6.18691 14.87358v232.852763c0 11.62389 9.436599 21.060489 21.060489 21.060489h211.667287c11.62389 0 21.060489-9.436599 21.060489-21.060489v-296.3467c0-11.62389-9.436599-21.060489-21.060489-21.060489zm0 0" fill="none" stroke="#212121" stroke-linecap="round" stroke-linejoin="round" stroke-width="3" transform="matrix(.062506 0 0 .062506 0 13.438783)"/><path d="m11.90625 2.902344c-.347656 0-.683594.140625-.929688.386718l-5.292968 5.292969c-.246094.246094-.386719.578125-.386719.929688v.332031c0-.351562.140625-.6875.386719-.933594l5.292968-5.292968c.246094-.246094.582032-.382813.929688-.382813h13.230469c.726562 0 1.316406.589844 1.316406 1.316406v-.332031c0-.726562-.589844-1.316406-1.316406-1.316406zm-5.292969 9.917968c0 .363282-.292969.660157-.660156.660157h-.65625v.332031h.65625c.367187 0 .660156-.296875.660156-.664062zm18.523438 3.96875v.328126c0 .367187.296875.664062.664062.664062h.652344v-.332031h-.652344c-.367187 0-.664062-.292969-.664062-.660157zm0 0" fill="#fff" fill-opacity=".313725"/><g fill="none" stroke="#212121" stroke-linecap="round" stroke-linejoin="round" stroke-width="11.338583" transform="scale(.016538)"><path d="m719.931259 175.495054c-21.021615 0-41.334636 8.503125-56.215105 23.383594l-320.048181 320.048181c-14.880469 14.880469-23.383594 34.957293-23.383594 56.215105v39.917449h39.681251c22.202604 0 39.917448 17.951042 39.917448 40.153646v119.988543c0 21.966407-17.714844 39.917449-39.917448 39.917449h-39.681251v800.002354c0 43.932813 35.665886 79.598698 79.834897 79.598698h1119.814337c43.932813 0 79.598699-35.665885 79.598699-79.598698v-560.025268h-39.445053c-22.202604 0-40.153646-17.714844-40.153646-39.917448v-440.036725c0-22.202604 17.951042-39.917448 40.153646-39.917448h39.445053v-280.130733c0-43.932813-35.665886-79.598699-79.598699-79.598699zm0 0"/><path d="m800.002354 295.483597c-21.021615 0-41.334636 8.503126-56.215105 23.383595l-239.977086 239.977086c-15.116667 14.880469-23.383594 35.19349-23.383594 56.215105v119.988543h959.199751v-359.96563c0-43.932813-35.665886-79.598699-79.598699-79.598699zm0 0"/></g></svg>

<?xml version="1.0" encoding="UTF-8"?>
<svg xmlns="http://www.w3.org/2000/svg" xmlns:xlink="http://www.w3.org/1999/xlink" width="32pt" height="32pt" viewBox="0 0 32 32" version="1.1">
<defs>
<linearGradient id="linear0" gradientUnits="userSpaceOnUse" x1="254" y1="233.5" x2="254" y2="254.66667" gradientTransform="matrix(0.062506,0,0,0.062506,-0.00000250024,13.387054)">
<stop offset="0" style="stop-color:rgb(0%,0%,0%);stop-opacity:0.27451;"/>
<stop offset="1" style="stop-color:rgb(0%,0%,0%);stop-opacity:0;"/>
</linearGradient>
<radialGradient id="radial0" gradientUnits="userSpaceOnUse" cx="450.90894" cy="189.57936" fx="450.90894" fy="189.57936" r="21.166656" gradientTransform="matrix(0.00000017417,-0.0781325,-0.140638,-0.000000101539,50.476844,63.543604)">
<stop offset="0" style="stop-color:rgb(0%,0%,0%);stop-opacity:0.313725;"/>
<stop offset="0.222222" style="stop-color:rgb(0%,0%,0%);stop-opacity:0.27451;"/>
<stop offset="1" style="stop-color:rgb(0%,0%,0%);stop-opacity:0;"/>
</radialGradient>
<radialGradient id="radial1" gradientUnits="userSpaceOnUse" cx="450.90894" cy="189.57936" fx="450.90894" fy="189.57936" r="21.166656" gradientTransform="matrix(-0.00000017417,0.0781325,0.140638,0.000000101539,-18.723812,-7.579209)">
<stop offset="0" style="stop-color:rgb(0%,0%,0%);stop-opacity:0.313725;"/>
<stop offset="0.222222" style="stop-color:rgb(0%,0%,0%);stop-opacity:0.27451;"/>
<stop offset="1" style="stop-color:rgb(0%,0%,0%);stop-opacity:0;"/>
</radialGradient>
<radialGradient id="radial2" gradientUnits="userSpaceOnUse" cx="450.90894" cy="189.57936" fx="450.90894" fy="189.57936" r="21.166656" gradientTransform="matrix(-0.00000017417,-0.0781325,0.140638,-0.000000101539,-18.723812,63.543604)">
<stop offset="0" style="stop-color:rgb(0%,0%,0%);stop-opacity:0.313725;"/>
<stop offset="0.222222" style="stop-color:rgb(0%,0%,0%);stop-opacity:0.27451;"/>
<stop offset="1" style="stop-color:rgb(0%,0%,0%);stop-opacity:0;"/>
</radialGradient>
<radialGradient id="radial3" gradientUnits="userSpaceOnUse" cx="450.90894" cy="189.57936" fx="450.90894" fy="189.57936" r="21.166656" gradientTransform="matrix(0.00000017417,0.0781325,-0.140638,0.000000101539,50.476842,-7.57921)">
<stop offset="0" style="stop-color:rgb(0%,0%,0%);stop-opacity:0.313725;"/>
<stop offset="0.222222" style="stop-color:rgb(0%,0%,0%);stop-opacity:0.27451;"/>
<stop offset="1" style="stop-color:rgb(0%,0%,0%);stop-opacity:0;"/>
</radialGradient>
<linearGradient id="linear1" gradientUnits="userSpaceOnUse" x1="254" y1="275.83334" x2="254" y2="-211" gradientTransform="matrix(0.062506,0,0,0.062506,0,13.438783)">
<stop offset="0" style="stop-color:rgb(25.882353%,25.882353%,25.882353%);stop-opacity:1;"/>
<stop offset="1" style="stop-color:rgb(38.039216%,38.039216%,38.039216%);stop-opacity:1;"/>
</linearGradient>
<linearGradient id="linear2" gradientUnits="userSpaceOnUse" x1="254" y1="233.5" x2="254" y2="-168.66667" gradientTransform="matrix(0.062506,0,0,0.062506,0,13.438783)">
<stop offset="0" style="stop-color:rgb(14.901961%,65.098039%,60.392157%);stop-opacity:1;"/>
<stop offset="1" style="stop-color:rgb(30.196078%,71.372549%,67.45098%);stop-opacity:1;"/>
</linearGradient>
<linearGradient id="linear3" gradientUnits="userSpaceOnUse" x1="960" y1="1695.1182" x2="960" y2="295.1181" gradientTransform="matrix(0.016538,0,0,0.016538,0,0)">
<stop offset="0" style="stop-color:rgb(95.686275%,26.27451%,21.176471%);stop-opacity:1;"/>
<stop offset="1" style="stop-color:rgb(93.72549%,32.54902%,31.372549%);stop-opacity:1;"/>
</linearGradient>
</defs>
<g id="surface1">
<path style=" stroke:none;fill-rule:nonzero;fill:url(#linear0);" d="M 7.609375 28.007812 L 24.144531 28.007812 L 24.144531 29.355469 L 7.609375 29.355469 Z M 7.609375 28.007812 "/>
<path style=" stroke:none;fill-rule:nonzero;fill:url(#radial0);" d="M 24.144531 27.980469 L 26.792969 27.980469 L 26.792969 26.660156 L 24.144531 26.660156 Z M 24.144531 27.980469 "/>
<path style=" stroke:none;fill-rule:nonzero;fill:url(#radial1);" d="M 7.609375 27.980469 L 4.960938 27.980469 L 4.960938 29.304688 L 7.609375 29.304688 Z M 7.609375 27.980469 "/>
<path style=" stroke:none;fill-rule:nonzero;fill:url(#radial2);" d="M 7.609375 27.980469 L 4.960938 27.980469 L 4.960938 26.660156 L 7.609375 26.660156 Z M 7.609375 27.980469 "/>
<path style=" stroke:none;fill-rule:nonzero;fill:url(#radial3);" d="M 24.144531 27.980469 L 26.792969 27.980469 L 26.792969 29.304688 L 24.144531 29.304688 Z M 24.144531 27.980469 "/>
<path style=" stroke:none;fill-rule:nonzero;fill:url(#linear1);" d="M 11.90625 2.902344 C 11.558594 2.902344 11.222656 3.042969 10.976562 3.289062 L 5.683594 8.582031 C 5.4375 8.828125 5.296875 9.160156 5.296875 9.511719 L 5.296875 10.171875 L 5.953125 10.171875 C 6.320312 10.171875 6.613281 10.46875 6.613281 10.835938 L 6.613281 12.820312 C 6.613281 13.183594 6.320312 13.480469 5.953125 13.480469 L 5.296875 13.480469 L 5.296875 26.710938 C 5.296875 27.4375 5.886719 28.027344 6.617188 28.027344 L 25.136719 28.027344 C 25.863281 28.027344 26.453125 27.4375 26.453125 26.710938 L 26.453125 17.449219 L 25.800781 17.449219 C 25.433594 17.449219 25.136719 17.15625 25.136719 16.789062 L 25.136719 9.511719 C 25.136719 9.144531 25.433594 8.851562 25.800781 8.851562 L 26.453125 8.851562 L 26.453125 4.21875 C 26.453125 3.492188 25.863281 2.902344 25.136719 2.902344 Z M 11.90625 2.902344 "/>
<path style=" stroke:none;fill-rule:nonzero;fill:rgb(0%,0%,0%);fill-opacity:0.235294;" d="M 5.296875 26.265625 L 5.296875 26.710938 C 5.296875 27.4375 5.886719 28.027344 6.617188 28.027344 L 25.136719 28.027344 C 25.863281 28.027344 26.453125 27.4375 26.453125 26.710938 L 26.453125 26.265625 C 26.453125 26.992188 25.863281 27.582031 25.136719 27.582031 L 6.617188 27.582031 C 5.886719 27.582031 5.296875 26.992188 5.296875 26.265625 Z M 5.296875 26.265625 "/>
<path style=" stroke:none;fill-rule:nonzero;fill:url(#linear2);" d="M 13.230469 4.886719 C 12.882812 4.886719 12.546875 5.027344 12.300781 5.273438 L 8.332031 9.242188 C 8.082031 9.488281 7.945312 9.824219 7.945312 10.171875 L 7.945312 24.726562 C 7.945312 25.453125 8.535156 26.042969 9.261719 26.042969 L 22.492188 26.042969 C 23.21875 26.042969 23.808594 25.453125 23.808594 24.726562 L 23.808594 6.203125 C 23.808594 5.476562 23.21875 4.886719 22.492188 4.886719 Z M 13.230469 4.886719 "/>
<path style=" stroke:none;fill-rule:nonzero;fill:url(#linear3);" d="M 13.230469 4.886719 C 12.882812 4.886719 12.546875 5.027344 12.300781 5.273438 L 8.332031 9.242188 C 8.082031 9.488281 7.945312 9.824219 7.945312 10.171875 L 7.945312 12.15625 L 23.808594 12.15625 L 23.808594 6.203125 C 23.808594 5.476562 23.21875 4.886719 22.492188 4.886719 Z M 13.230469 4.886719 "/>
<path style="fill:none;stroke-width:3;stroke-linecap:round;stroke-linejoin:round;stroke:rgb(12.941176%,12.941176%,12.941176%);stroke-opacity:1;stroke-miterlimit:4;" d="M 211.667287 -136.819966 C 206.105318 -136.819966 200.730831 -134.570181 196.793707 -130.633057 L 133.299771 -67.13912 C 129.300152 -63.201996 127.112861 -57.827509 127.112861 -52.26554 L 127.112861 180.587223 C 127.112861 192.211113 136.54946 201.647712 148.17335 201.647712 L 359.840637 201.647712 C 371.464527 201.647712 380.901126 192.211113 380.901126 180.587223 L 380.901126 -115.759477 C 380.901126 -127.383367 371.464527 -136.819966 359.840637 -136.819966 Z M 211.667287 -136.819966 " transform="matrix(0.062506,0,0,0.062506,0,13.438783)"/>
<path style=" stroke:none;fill-rule:nonzero;fill:rgb(100%,100%,100%);fill-opacity:0.313725;" d="M 11.90625 2.902344 C 11.558594 2.902344 11.222656 3.042969 10.976562 3.289062 L 5.683594 8.582031 C 5.4375 8.828125 5.296875 9.160156 5.296875 9.511719 L 5.296875 9.84375 C 5.296875 9.492188 5.4375 9.15625 5.683594 8.910156 L 10.976562 3.617188 C 11.222656 3.371094 11.558594 3.234375 11.90625 3.234375 L 25.136719 3.234375 C 25.863281 3.234375 26.453125 3.824219 26.453125 4.550781 L 26.453125 4.21875 C 26.453125 3.492188 25.863281 2.902344 25.136719 2.902344 Z M 6.613281 12.820312 C 6.613281 13.183594 6.320312 13.480469 5.953125 13.480469 L 5.296875 13.480469 L 5.296875 13.8125 L 5.953125 13.8125 C 6.320312 13.8125 6.613281 13.515625 6.613281 13.148438 Z M 25.136719 16.789062 L 25.136719 17.117188 C 25.136719 17.484375 25.433594 17.78125 25.800781 17.78125 L 26.453125 17.78125 L 26.453125 17.449219 L 25.800781 17.449219 C 25.433594 17.449219 25.136719 17.15625 25.136719 16.789062 Z M 25.136719 16.789062 "/>
<path style="fill:none;stroke-width:11.338583;stroke-linecap:round;stroke-linejoin:round;stroke:rgb(12.941176%,12.941176%,12.941176%);stroke-opacity:1;stroke-miterlimit:4;" d="M 719.931259 175.495054 C 698.909644 175.495054 678.596623 183.998179 663.716154 198.878648 L 343.667973 518.926829 C 328.787504 533.807298 320.284379 553.884122 320.284379 575.141934 L 320.284379 615.059383 L 359.96563 615.059383 C 382.168234 615.059383 399.883078 633.010425 399.883078 655.213029 L 399.883078 775.201572 C 399.883078 797.167979 382.168234 815.119021 359.96563 815.119021 L 320.284379 815.119021 L 320.284379 1615.121375 C 320.284379 1659.054188 355.950265 1694.720073 400.119276 1694.720073 L 1519.933613 1694.720073 C 1563.866426 1694.720073 1599.532312 1659.054188 1599.532312 1615.121375 L 1599.532312 1055.096107 L 1560.087259 1055.096107 C 1537.884655 1055.096107 1519.933613 1037.381263 1519.933613 1015.178659 L 1519.933613 575.141934 C 1519.933613 552.93933 1537.884655 535.224486 1560.087259 535.224486 L 1599.532312 535.224486 L 1599.532312 255.093753 C 1599.532312 211.16094 1563.866426 175.495054 1519.933613 175.495054 Z M 719.931259 175.495054 " transform="matrix(0.016538,0,0,0.016538,0,0)"/>
<path style="fill:none;stroke-width:11.338583;stroke-linecap:round;stroke-linejoin:round;stroke:rgb(12.941176%,12.941176%,12.941176%);stroke-opacity:1;stroke-miterlimit:4;" d="M 800.002354 295.483597 C 778.980739 295.483597 758.667718 303.986723 743.787249 318.867192 L 503.810163 558.844278 C 488.693496 573.724747 480.426569 594.037768 480.426569 615.059383 L 480.426569 735.047926 L 1439.62632 735.047926 L 1439.62632 375.082296 C 1439.62632 331.149483 1403.960434 295.483597 1360.027621 295.483597 Z M 800.002354 295.483597 " transform="matrix(0.016538,0,0,0.016538,0,0)"/>
</g>
</svg>
